X: 1
T: Gori More    [Dm]
O: Serbia
F: http://www.youtube.com/watch?v=ECgs5odksl0
F: http://www.youtube.com/watch?v=ribwGQ7-ZnA
F: https://www.youtube.com/watch?v=Y65yxjj-BRQ
F: https://www.youtube.com/watch?v=g7slxnRluLs
Z: Seymour Schlien
M: 2/4
L: 1/8
%Q: 1/4=144
K: Dm
% - - - - - - - - - -
"C"|:\
   "Dm"defe | fed2 | "C"edcd | "Dm"dd3 |\
   "Dm"defe | fed2 | "C"edcd | "Dm"dd3 :| "C"edcg | "Dm"dd3 |]
"I"|:\
   "Dm"defe | fed2 | "C"edcd | "Dm"ddd2 |\
   "Dm"defe | fed2 | "C"edc2 | "Dm"dd!fine!d2 :: "(drums)"z4 :|
"V"|:\
   "Dm"daag | a(gf2) | "C"gfec | "Dm"dd3 |\
   "Dm"daag | agf2 | "C"gfec | "Dm"dd3 :|
